img/icons/mail-red.svg

<svg width="36" height="36" viewBox="0 0 36 36" fill="none" xmlns="http://www.w3.org/2000/svg">
<path fill-rule="evenodd" clip-rule="evenodd" d="M7.5 6C5.01472 6 3 8.01472 3 10.5V25.5C3 27.9853 5.01472 30 7.5 30H28.5C30.9853 30 33 27.9853 33 25.5V10.5C33 8.01472 30.9853 6 28.5 6H7.5ZM6.13697 9.87291C6.37442 9.35765 6.89544 9 7.5 9H28.5C29.1046 9 29.6256 9.35765 29.863 9.87291L18.9209 18.3834C18.3792 18.8047 17.6208 18.8047 17.0791 18.3834L6.13697 9.87291ZM6 13.567V22.2974L11.4189 17.7817L6 13.567ZM6.12435 26.0989C6.35557 26.6293 6.88449 27 7.5 27H28.5C29.1155 27 29.6444 26.6293 29.8757 26.0989L22.1572 19.6669L20.7627 20.7515C19.1377 22.0154 16.8623 22.0154 15.2373 20.7515L13.8428 19.6669L6.12435 26.0989ZM30 22.2974V13.567L24.5811 17.7817L30 22.2974Z" fill="#E3000F"/>
</svg>

<svg width="36" height="36" fill="none" xmlns="http://www.w3.org/2000/svg"><path fill-rule="evenodd" clip-rule="evenodd" d="M7.5 6A4.5 4.5 0 003 10.5v15A4.5 4.5 0 007.5 30h21a4.5 4.5 0 004.5-4.5v-15A4.5 4.5 0 0028.5 6h-21zM6.137 9.873A1.5 1.5 0 017.5 9h21a1.5 1.5 0 011.363.873l-10.942 8.51a1.5 1.5 0 01-1.842 0L6.137 9.873zM6 13.567v8.73l5.419-4.515L6 13.567zm.124 12.532A1.5 1.5 0 007.5 27h21a1.5 1.5 0 001.376-.901l-7.719-6.432-1.394 1.084a4.5 4.5 0 01-5.526 0l-1.394-1.084-7.719 6.432zM30 22.297v-8.73l-5.419 4.215L30 22.297z" fill="#E3000F"/></svg>
